Obsidian-SemiLight/actions/22s/im-facebook.svg

<svg viewBox="0 0 22 22" xmlns="http://www.w3.org/2000/svg"><path d="m16.65625 3c-2.795946 0-3.779297 1.415375-3.779297 3.796875v1.6152344h-1.876953v3.0585936h1.876953v7.529297h3.486328v-7.529297h2.328125l.308594-3.0585936h-2.636719l.00586-1.3222656c0-.7616001.07157-1.1699219 1.160156-1.1699219h1.455078v-2.9199219z" fill="#4d4d4d"/></svg>

<svg xmlns="http://www.w3.org/2000/svg" viewBox="0 0 22 22">
  <defs id="defs3051">
    <style type="text/css" id="current-color-scheme">
      .ColorScheme-Text {
        color:#4d4d4d;
      }
      </style>
  </defs>
 <path 
     style="fill:currentColor;fill-opacity:1;stroke:none" 
     d="M 16.65625 3 C 13.860304 3 12.876953 4.415375 12.876953 6.796875 L 12.876953 8.4121094 L 11 8.4121094 L 11 11.470703 L 12.876953 11.470703 L 12.876953 19 L 16.363281 19 L 16.363281 11.470703 L 18.691406 11.470703 L 19 8.4121094 L 16.363281 8.4121094 L 16.369141 7.0898438 C 16.369141 6.3282437 16.440711 5.9199219 17.529297 5.9199219 L 18.984375 5.9199219 L 18.984375 3 L 16.65625 3 z "
     class="ColorScheme-Text"
     />
</svg>
